X: 4191
T: Blue, The
R: jig
M: 6/8
K: Amixolydian
|:A=c^c efe|efe =c^ce|A=c^c efe|ecA BBB|
A=c^c efe|efe =c^ce|aga ged|^d=d=c AAA:|
|:FAB =cBA|FAB =cBA|cef gfe|cef gfe|
FAB =cBA|FAB =cBA|aga ged|^d=d=c AAA:|

